assets/icons/24px/outline/user-24px.svg

<svg width="24" height="24" viewBox="0 0 24 24" fill="none" xmlns="http://www.w3.org/2000/svg">
<path d="M19 21L19 19.55C19 18.5734 19 18.0851 18.8874 17.6857C18.604 16.6811 17.8189 15.896 16.8143 15.6126C16.415 15.5 15.9266 15.5 14.95 15.5H8.05C7.07337 15.5 6.58505 15.5 6.18568 15.6126C5.18108 15.896 4.39596 16.6811 4.11263 17.6857C4 18.085 4 18.5734 4 19.55L4 21M16.2 7.06012C16.2 9.30489 14.3196 11.1246 12 11.1246C9.6804 11.1246 7.8 9.30489 7.8 7.06012C7.8 4.81535 9.6804 2.99561 12 2.99561C14.3196 2.99561 16.2 4.81535 16.2 7.06012Z" stroke="white" stroke-width="2" stroke-linecap="round" stroke-linejoin="round"/>
</svg>

<svg width="24" height="24" fill="none" xmlns="http://www.w3.org/2000/svg"><path d="M19 21v-1.45c0-.977 0-1.465-.113-1.864a3 3 0 0 0-2.073-2.073c-.399-.113-.887-.113-1.864-.113h-6.9c-.977 0-1.465 0-1.864.113a3 3 0 0 0-2.073 2.073C4 18.085 4 18.573 4 19.55V21M16.2 7.06c0 2.245-1.88 4.065-4.2 4.065-2.32 0-4.2-1.82-4.2-4.065S9.68 2.996 12 2.996c2.32 0 4.2 1.82 4.2 4.064z" stroke="#fff" stroke-width="2" stroke-linecap="round" stroke-linejoin="round"/></svg>
